icons/production/mongodb.svg

<?xml version="1.0" encoding="UTF-8" standalone="no"?>
<svg width="24px" height="24px" viewBox="0 0 24 24" version="1.1" xmlns="http://www.w3.org/2000/svg">
<!--Generator: Sketch 3.8.3 (29802) - http://www.bohemiancoding.com/sketch-->
    <title>
        mongodb
    </title>
    <desc>
        Created with Sketch.
    </desc>
    <g id="Page-1" stroke="none" stroke-width="1" fill="none" fill-rule="evenodd">
        <path d="M16.4648557,10.8705975 C16.4207556,10.3629566 16.3272896,9.85662753 16.1969637,9.36407162 C15.7855817,7.81032334 15.1003837,6.3228176 14.1341295,5.03338362 C13.870845,4.68183905 13.5864977,4.34603529 13.2824041,4.02859579 C12.9690955,3.70131829 12.6215599,3.40093133 12.4030338,2.99363809 C12.2648094,2.73588247 12.1331672,2.47484751 11.9988921,2.21512429 C11.9969174,2.29645176 11.9916517,2.37777924 11.9916517,2.45845084 C11.9916517,2.37712337 11.9975756,2.29579589 11.9988921,2.21446842 C11.97388,2.15216108 11.948868,2.08919787 11.9133246,2 C11.8988439,2.04919 11.889629,2.06624254 11.889629,2.08460681 C11.8784394,2.50764085 11.637534,2.79491047 11.3380479,3.06315997 C11.0010437,3.36485866 10.6870769,3.69213616 10.363237,4.00826392 C10.3744266,4.02269299 10.3869326,4.03712206 10.3994386,4.05155112 C10.3869326,4.03712206 10.3744266,4.02334886 10.363237,4.00826392 C9.40027384,5.27015151 8.55183947,6.61926936 8.05225709,8.13366564 C7.90679239,8.57440808 7.79226363,9.02498852 7.71196185,9.48212763 C7.54148512,10.4534663 7.46249976,11.3972585 7.5171313,12.3810586 C7.54740902,12.9247721 7.64284966,13.4599593 7.7850233,13.9866203 C8.30171917,15.8997836 9.35090799,17.4863252 10.7851504,18.8347872 C11.051726,19.0853283 11.3393643,19.312914 11.6177877,19.5516495 C11.6184459,19.549026 11.6191041,19.5470584 11.6197623,19.544435 C11.6191041,19.5470584 11.6184459,19.549026 11.6177877,19.5516495 C11.6585968,19.692005 11.7000641,19.8323605 11.7408732,19.9727159 C11.7790495,20.1904637 11.8172257,20.4082115 11.855402,20.6259592 C11.8738319,20.8528891 11.8916036,21.0804748 11.9100335,21.3074047 C11.9093753,21.4457926 11.9034514,21.5848364 11.9120082,21.7225684 C11.9139828,21.7579852 11.9607158,21.7907785 11.986386,21.8248836 C11.9870442,21.8235719 11.9877025,21.8222601 11.9890189,21.8209484 C11.9883607,21.8222601 11.9877025,21.8235719 11.986386,21.8248836 C12.064055,21.8517741 12.1410657,21.8793205 12.2187346,21.9062111 C12.288505,21.9331016 12.3582754,21.960648 12.4602982,22 C12.4451593,21.7730701 12.4319951,21.5835246 12.4188309,21.3939791 C12.4181727,21.1952515 12.4175144,20.995868 12.4168562,20.7971404 C12.412907,20.8017315 12.4076413,20.8063226 12.4030338,20.8109136 C12.4076413,20.8063226 12.4122488,20.8017315 12.4168562,20.7971404 C12.4445011,20.49413 12.4728042,20.1911196 12.5004491,19.8881091 C12.5208536,19.8218666 12.5406,19.7562799 12.5610045,19.6900374 C12.6189271,19.5877222 12.6761915,19.4860628 12.7341141,19.3837476 C12.9480327,19.2119105 13.1777485,19.0564701 13.3732373,18.8656129 C13.7260385,18.5199711 14.0781816,18.1703942 14.3934648,17.7919591 C14.8028722,17.3013708 15.1556735,16.7655276 15.4387043,16.1909884 C16.2436967,14.5572244 16.6162443,12.7352266 16.4681468,10.9184758 C16.4668304,10.902735 16.4655139,10.8863383 16.4641975,10.8699416 L16.4648557,10.8705975 Z" id="mongodb" fill="#000"/>
    </g>
</svg>

<svg xmlns="http://www.w3.org/2000/svg" viewBox="0 0 24 24">
    <path fill-rule="evenodd" d="M16.465 10.87a8.932 8.932 0 0 0-.268-1.506c-.411-1.554-1.097-3.041-2.063-4.33a10.885 10.885 0 0 0-.852-1.005c-.313-.328-.66-.628-.879-1.035-.138-.258-.27-.52-.404-.779-.002.081-.007.163-.007.243 0-.08.006-.162.007-.244L11.913 2c-.014.05-.023.066-.023.085-.012.423-.252.71-.552.978-.337.302-.65.63-.975.945l.036.044-.036-.044C9.4 5.27 8.552 6.62 8.053 8.134c-.146.44-.26.891-.341 1.348-.17.971-.25 1.915-.195 2.9.03.543.126 1.078.268 1.605.517 1.913 1.566 3.5 3 4.848.267.25.554.478.833.717l.002-.008-.002.008.123.42.114.654.055.681c0 .139-.007.278.002.416.002.035.049.068.074.102l.003-.004-.003.004.233.081.241.094-.041-.606-.002-.597-.014.014.014-.014.083-.909.061-.198.173-.306c.214-.172.444-.328.64-.518a15.2 15.2 0 0 0 1.02-1.074 8.06 8.06 0 0 0 1.045-1.601 10.094 10.094 0 0 0 1.025-5.321z"/>
</svg>
